app/content/themes/irontheme/images/general/drop.svg

<svg width="36" height="36" viewBox="0 0 36 36" fill="none" xmlns="http://www.w3.org/2000/svg">
<g clip-path="url(#clip0)">
<path d="M36 2.32258V1.16129H28.4516V0.580645C28.4516 0.26027 28.1922 0 27.871 0H24.3871C24.0659 0 23.8064 0.26027 23.8064 0.580645V1.16129H18.5806C16.9799 1.16129 15.6774 2.46377 15.6774 4.06452V6.96774H15.0968C14.7755 6.96774 14.5161 7.22801 14.5161 7.54839V9.87097C14.5161 10.1913 14.7755 10.4516 15.0968 10.4516H20.9032C21.2244 10.4516 21.4839 10.1913 21.4839 9.87097V7.54839C21.4839 7.22801 21.2244 6.96774 20.9032 6.96774H20.3226V5.80645H23.8064V6.3871C23.8064 6.70747 24.0659 6.96774 24.3871 6.96774H27.871C28.1922 6.96774 28.4516 6.70747 28.4516 6.3871V5.80645H36V4.64516H31.9355V2.32258H36ZM20.3226 9.29032H15.6774V8.12903H20.3226V9.29032ZM19.7419 4.64516C19.4207 4.64516 19.1613 4.90543 19.1613 5.22581V6.96774H16.8387V4.06452C16.8387 3.10424 17.6204 2.32258 18.5806 2.32258H20.3226V4.64516H19.7419ZM21.4839 4.64516V2.32258H23.8064V4.64516H21.4839ZM27.2903 5.80645H24.9677V1.16129H27.2903V5.80645ZM30.7742 4.64516H28.4516V2.32258H30.7742V4.64516Z" fill="url(#paint0_linear)"/>
<path d="M26.7097 11.6128H9.29036C8.96914 11.6128 8.70972 11.8731 8.70972 12.1934V14.516C8.70972 14.8364 8.96914 15.0967 9.29036 15.0967H9.90248L11.0334 35.4519C11.0502 35.7589 11.3053 35.9999 11.6129 35.9999H24.3871C24.6948 35.9999 24.9499 35.7589 24.9666 35.4519L26.0976 15.0967H26.7097C27.0309 15.0967 27.2904 14.8364 27.2904 14.516V12.1934C27.2904 11.8731 27.0309 11.6128 26.7097 11.6128ZM23.838 34.8386H12.1621L11.0649 15.0967H13.3549V33.0967C13.3549 33.417 13.6143 33.6773 13.9355 33.6773H22.0646C22.3858 33.6773 22.6452 33.417 22.6452 33.0967V15.0967H24.9346L23.838 34.8386ZM14.5162 31.3547H21.4839V32.516H14.5162V31.3547ZM21.4839 16.258H18V17.4192H21.4839V18.5805H19.1613V19.7418H21.4839V20.9031H18V22.0644H21.4839V23.2257H19.1613V24.387H21.4839V25.5483H18V26.7096H21.4839V27.8709H19.1613V29.0322H21.4839V30.1934H14.5162V15.0967H21.4839V16.258ZM26.1291 13.9354H9.87101V12.7741H26.1291V13.9354Z" fill="url(#paint1_linear)"/>
<path d="M31.9355 26.7096V27.8708C32.8958 27.8708 33.6775 27.0892 33.6775 26.1289H32.5162C32.5162 26.4487 32.2559 26.7096 31.9355 26.7096Z" fill="url(#paint2_linear)"/>
<path d="M32.4329 18.8622C32.2234 18.5121 31.6467 18.5121 31.4372 18.8622L28.5507 23.673C28.1059 24.4144 27.8708 25.2638 27.8708 26.1291C27.8708 28.3703 29.6947 30.1936 31.9354 30.1936C34.176 30.1936 35.9999 28.3703 35.9999 26.1291C35.9999 25.2638 35.7648 24.4144 35.3194 23.6735L32.4329 18.8622ZM31.9354 29.0323C30.3346 29.0323 29.0321 27.7298 29.0321 26.1291C29.0321 25.4747 29.2105 24.832 29.5473 24.2709L31.9354 20.29L34.3234 24.2709C34.6603 24.832 34.8386 25.4747 34.8386 26.1291C34.8386 27.7298 33.5361 29.0323 31.9354 29.0323Z" fill="url(#paint3_linear)"/>
<path d="M33.5799 9.54856C33.3645 9.22535 32.8292 9.22535 32.6137 9.54856L30.935 12.0662C30.4496 12.794 30.1936 13.6411 30.1936 14.5161C30.1936 16.1168 31.4961 17.4193 33.0968 17.4193C34.6976 17.4193 36.0001 16.1168 36.0001 14.5161C36.0001 13.6411 35.744 12.794 35.2587 12.0662L33.5799 9.54856ZM33.0968 16.258C32.1366 16.258 31.3549 15.4764 31.3549 14.5161C31.3549 13.8711 31.5437 13.2468 31.9012 12.7109L33.0968 10.918L34.2924 12.7109C34.6499 13.2468 34.8388 13.8711 34.8388 14.5161C34.8388 15.4764 34.0571 16.258 33.0968 16.258Z" fill="url(#paint4_linear)"/>
<path d="M4.06445 19.1612V20.3225C5.02473 20.3225 5.80639 19.5408 5.80639 18.5806H4.6451C4.6451 18.9004 4.38483 19.1612 4.06445 19.1612Z" fill="url(#paint5_linear)"/>
<path d="M4.56209 11.3139C4.35257 10.9637 3.77589 10.9637 3.56637 11.3139L0.679877 16.1246C0.235037 16.866 0 17.7154 0 18.5807C0 20.8219 1.82387 22.6453 4.06452 22.6453C6.30516 22.6453 8.12903 20.8219 8.12903 18.5807C8.12903 17.7154 7.894 16.866 7.44859 16.1252L4.56209 11.3139ZM4.06452 21.484C2.46377 21.484 1.16129 20.1815 1.16129 18.5807C1.16129 17.9264 1.33962 17.2836 1.67644 16.7226L4.06452 12.7417L6.45259 16.7226C6.78941 17.2836 6.96774 17.9264 6.96774 18.5807C6.96774 20.1815 5.66526 21.484 4.06452 21.484Z" fill="url(#paint6_linear)"/>
<path d="M5.70885 0.258521C5.49338 -0.0646894 4.95809 -0.0646894 4.74262 0.258521L3.06391 2.77616C2.57853 3.50395 2.32251 4.35111 2.32251 5.22604C2.32251 6.82679 3.62499 8.12927 5.22574 8.12927C6.82648 8.12927 8.12896 6.82679 8.12896 5.22604C8.12896 4.35111 7.87294 3.50395 7.38756 2.77616L5.70885 0.258521ZM5.22574 6.96798C4.26546 6.96798 3.4838 6.18632 3.4838 5.22604C3.4838 4.58104 3.67262 3.95673 4.03014 3.42088L5.22574 1.62791L6.42133 3.42088C6.77885 3.95673 6.96767 4.58104 6.96767 5.22604C6.96767 6.18632 6.18601 6.96798 5.22574 6.96798Z" fill="url(#paint7_linear)"/>
</g>
<defs>
<linearGradient id="paint0_linear" x1="36" y1="5.22581" x2="14.5161" y2="5.22581" gradientUnits="userSpaceOnUse">
<stop stop-color="#2063B1"/>
<stop offset="1" stop-color="#3CBAFC"/>
</linearGradient>
<linearGradient id="paint1_linear" x1="27.2904" y1="23.8063" x2="8.70972" y2="23.8063" gradientUnits="userSpaceOnUse">
<stop stop-color="#2063B1"/>
<stop offset="1" stop-color="#3CBAFC"/>
</linearGradient>
<linearGradient id="paint2_linear" x1="33.6775" y1="26.9999" x2="31.9355" y2="26.9999" gradientUnits="userSpaceOnUse">
<stop stop-color="#2063B1"/>
<stop offset="1" stop-color="#3CBAFC"/>
</linearGradient>
<linearGradient id="paint3_linear" x1="35.9999" y1="24.3966" x2="27.8708" y2="24.3966" gradientUnits="userSpaceOnUse">
<stop stop-color="#2063B1"/>
<stop offset="1" stop-color="#3CBAFC"/>
</linearGradient>
<linearGradient id="paint4_linear" x1="36.0001" y1="13.3627" x2="30.1936" y2="13.3627" gradientUnits="userSpaceOnUse">
<stop stop-color="#2063B1"/>
<stop offset="1" stop-color="#3CBAFC"/>
</linearGradient>
<linearGradient id="paint5_linear" x1="5.80639" y1="19.4515" x2="4.06445" y2="19.4515" gradientUnits="userSpaceOnUse">
<stop stop-color="#2063B1"/>
<stop offset="1" stop-color="#3CBAFC"/>
</linearGradient>
<linearGradient id="paint6_linear" x1="8.12903" y1="16.8483" x2="3.45935e-08" y2="16.8483" gradientUnits="userSpaceOnUse">
<stop stop-color="#2063B1"/>
<stop offset="1" stop-color="#3CBAFC"/>
</linearGradient>
<linearGradient id="paint7_linear" x1="8.12896" y1="4.07269" x2="2.32251" y2="4.07269" gradientUnits="userSpaceOnUse">
<stop stop-color="#2063B1"/>
<stop offset="1" stop-color="#3CBAFC"/>
</linearGradient>
<clipPath id="clip0">
<rect width="36" height="36" fill="white"/>
</clipPath>
</defs>
</svg>

<svg width="36" height="36" viewBox="0 0 36 36" fill="none" xmlns="http://www.w3.org/2000/svg"><g clip-path="url(#clip0)"><path d="M36 2.323V1.16h-7.548V.58A.58.58 0 0027.87 0h-3.484a.58.58 0 00-.58.58v.581H18.58a2.907 2.907 0 00-2.904 2.904v2.903h-.58a.58.58 0 00-.58.58v2.323c0 .32.258.58.58.58h5.806a.58.58 0 00.58-.58V7.548a.58.58 0 00-.58-.58h-.58V5.806h3.483v.581c0 .32.26.58.581.58h3.484a.58.58 0 00.58-.58v-.58H36V4.644h-4.064V2.323H36zM20.323 9.29h-4.646V8.13h4.646v1.16zm-.581-4.645a.58.58 0 00-.58.58v1.743h-2.323V4.065c0-.96.781-1.742 1.742-1.742h1.742v2.322h-.581zm1.742 0V2.323h2.322v2.322h-2.322zm5.806 1.161h-2.322V1.161h2.322v4.645zm3.484-1.16h-2.322V2.322h2.322v2.322z" fill="url(#paint0_linear)"/><path d="M26.71 11.613H9.29a.58.58 0 00-.58.58v2.323c0 .32.26.58.58.58h.612l1.131 20.356a.58.58 0 00.58.548h12.774a.58.58 0 00.58-.548l1.13-20.355h.613a.58.58 0 00.58-.581v-2.323a.58.58 0 00-.58-.58zm-2.872 23.226H12.162l-1.097-19.742h2.29v18c0 .32.26.58.58.58h8.13a.58.58 0 00.58-.58v-18h2.29l-1.097 19.742zm-9.322-3.484h6.968v1.161h-6.968v-1.161zm6.968-15.097H18v1.161h3.484v1.162H19.16v1.16h2.323v1.162H18v1.161h3.484v1.162H19.16v1.161h2.323v1.161H18v1.162h3.484v1.16H19.16v1.162h2.323v1.161h-6.968V15.097h6.968v1.161zm4.645-2.323H9.871v-1.16h16.258v1.16z" fill="url(#paint1_linear)"/><path d="M31.936 26.71v1.16c.96 0 1.742-.78 1.742-1.741h-1.162c0 .32-.26.58-.58.58z" fill="url(#paint2_linear)"/><path d="M32.433 18.862c-.21-.35-.786-.35-.996 0l-2.886 4.811a4.775 4.775 0 00-.68 2.456 4.07 4.07 0 004.064 4.065A4.07 4.07 0 0036 26.129c0-.865-.235-1.715-.68-2.456l-2.887-4.81zm-.498 10.17a2.907 2.907 0 01-2.903-2.903c0-.654.178-1.297.515-1.858l2.388-3.981 2.388 3.98c.337.562.516 1.205.516 1.86 0 1.6-1.303 2.902-2.904 2.902z" fill="url(#paint3_linear)"/><path d="M33.58 9.549c-.215-.324-.75-.324-.966 0l-1.679 2.517a4.4 4.4 0 00-.741 2.45c0 1.6 1.302 2.903 2.903 2.903 1.6 0 2.903-1.302 2.903-2.903 0-.875-.256-1.722-.741-2.45l-1.68-2.517zm-.483 6.709c-.96 0-1.742-.782-1.742-1.742 0-.645.189-1.27.546-1.805l1.196-1.793 1.195 1.793c.358.536.547 1.16.547 1.805 0 .96-.782 1.742-1.742 1.742z" fill="url(#paint4_linear)"/><path d="M4.064 19.161v1.162c.96 0 1.742-.782 1.742-1.742h-1.16c0 .32-.261.58-.582.58z" fill="url(#paint5_linear)"/><path d="M4.562 11.314c-.21-.35-.786-.35-.996 0L.68 16.124A4.775 4.775 0 000 18.582a4.07 4.07 0 004.065 4.064 4.07 4.07 0 004.064-4.064 4.77 4.77 0 00-.68-2.456l-2.887-4.811zm-.497 10.17a2.907 2.907 0 01-2.904-2.903c0-.655.179-1.297.515-1.858l2.389-3.981 2.388 3.98c.336.562.515 1.204.515 1.859 0 1.6-1.303 2.903-2.903 2.903z" fill="url(#paint6_linear)"/><path d="M5.709.259c-.216-.324-.75-.324-.966 0l-1.68 2.517a4.4 4.4 0 00-.74 2.45c0 1.6 1.302 2.903 2.903 2.903 1.6 0 2.903-1.302 2.903-2.903a4.4 4.4 0 00-.741-2.45L5.708.26zm-.483 6.709c-.96 0-1.742-.782-1.742-1.742 0-.645.189-1.27.546-1.805l1.196-1.793L6.42 3.42c.358.536.547 1.16.547 1.805 0 .96-.782 1.742-1.742 1.742z" fill="url(#paint7_linear)"/></g><defs><linearGradient id="paint0_linear" x1="36" y1="5.226" x2="14.516" y2="5.226" gradientUnits="userSpaceOnUse"><stop stop-color="#2063B1"/><stop offset="1" stop-color="#3CBAFC"/></linearGradient><linearGradient id="paint1_linear" x1="27.29" y1="23.806" x2="8.71" y2="23.806" gradientUnits="userSpaceOnUse"><stop stop-color="#2063B1"/><stop offset="1" stop-color="#3CBAFC"/></linearGradient><linearGradient id="paint2_linear" x1="33.678" y1="27" x2="31.936" y2="27" gradientUnits="userSpaceOnUse"><stop stop-color="#2063B1"/><stop offset="1" stop-color="#3CBAFC"/></linearGradient><linearGradient id="paint3_linear" x1="36" y1="24.397" x2="27.871" y2="24.397" gradientUnits="userSpaceOnUse"><stop stop-color="#2063B1"/><stop offset="1" stop-color="#3CBAFC"/></linearGradient><linearGradient id="paint4_linear" x1="36" y1="13.363" x2="30.194" y2="13.363" gradientUnits="userSpaceOnUse"><stop stop-color="#2063B1"/><stop offset="1" stop-color="#3CBAFC"/></linearGradient><linearGradient id="paint5_linear" x1="5.806" y1="19.451" x2="4.064" y2="19.451" gradientUnits="userSpaceOnUse"><stop stop-color="#2063B1"/><stop offset="1" stop-color="#3CBAFC"/></linearGradient><linearGradient id="paint6_linear" x1="8.129" y1="16.848" x2="0" y2="16.848" gradientUnits="userSpaceOnUse"><stop stop-color="#2063B1"/><stop offset="1" stop-color="#3CBAFC"/></linearGradient><linearGradient id="paint7_linear" x1="8.129" y1="4.073" x2="2.323" y2="4.073" gradientUnits="userSpaceOnUse"><stop stop-color="#2063B1"/><stop offset="1" stop-color="#3CBAFC"/></linearGradient><clipPath id="clip0"><path fill="#fff" d="M0 0h36v36H0z"/></clipPath></defs></svg>
